X:165
T: Die Mordeltern
N: Q0085G
O: Mitteleuropa, Deutschland (BRD) , Baden, Odenwald
R: Ballade, Habgier, Mord, Reue, Selbstmord
M: 3/4
L: 1/8
K: G
G | BBG2B2 | AAF2z
A | GGE2A2 | FED2z
B | cBA2G2 | AdB2z
B | cBA2G2 | BAG2z

@@@ Tune index: 1220
